Newaita-dark/apps/22/com.github.georgekap1an.chores.svg

<svg height="22" viewBox="0 0 22 22" width="22" xmlns="http://www.w3.org/2000/svg" xmlns:xlink="http://www.w3.org/1999/xlink"><linearGradient id="a" gradientUnits="userSpaceOnUse" x1="10.9151136" x2="10.9151136" y1="19.27333715" y2="20.18293042919"><stop offset="0" stop-opacity=".27451"/><stop offset="1" stop-opacity="0"/></linearGradient><linearGradient id="b"><stop offset="0" stop-opacity=".313726"/><stop offset=".222222" stop-opacity=".27451"/><stop offset="1" stop-opacity="0"/></linearGradient><radialGradient id="c" cx="450.908936" cy="189.579361" gradientTransform="matrix(.00000012 -.0537161 -.0966889 -.00000007 34.475434 43.721791)" gradientUnits="userSpaceOnUse" r="21.166656" xlink:href="#b"/><radialGradient id="d" cx="450.908936" cy="189.579361" gradientTransform="matrix(-.00000012 .0537161 .0966889 .00000007 -12.645221 -5.175143)" gradientUnits="userSpaceOnUse" r="21.166656" xlink:href="#b"/><radialGradient id="e" cx="450.908936" cy="189.579361" gradientTransform="matrix(-.00000012 -.0537161 .0966889 -.00000007 -12.645221 43.721791)" gradientUnits="userSpaceOnUse" r="21.166656" xlink:href="#b"/><radialGradient id="f" cx="450.908936" cy="189.579361" gradientTransform="matrix(.00000012 .0537161 -.0966889 .00000007 34.475433 -5.175142)" gradientUnits="userSpaceOnUse" r="21.166656" xlink:href="#b"/><linearGradient id="g" gradientTransform="matrix(.0518029 0 0 .149471 -4.024634 23.128427)" gradientUnits="userSpaceOnUse" x1="323.513245" x2="323.513245" y1="-141.414581" y2="-25.791676"><stop offset="0" stop-color="#8d6e63"/><stop offset="1" stop-color="#795548"/></linearGradient><linearGradient id="h" gradientUnits="userSpaceOnUse" x1="254" x2="254" y1="212.333328" y2="-115.75"><stop offset="0" stop-color="#e0e0e0"/><stop offset="1" stop-color="#eee"/></linearGradient><linearGradient id="i" gradientUnits="userSpaceOnUse" x1="10.915104" x2="10.915104" y1="19.27332401286" y2="1.99107567177"><stop offset="0" stop-color="#424242"/><stop offset="1" stop-color="#616161"/></linearGradient><path d="m5.457031 19.273438h10.914063v.910156h-10.914063zm0 0" fill="url(#a)"/><path d="m16.371094 19.273438h1.820312v-.910157h-1.820312zm0 0" fill="url(#c)"/><path d="m5.457031 19.273438h-1.820312v.910156h1.820312zm0 0" fill="url(#d)"/><path d="m5.457031 19.273438h-1.820312v-.910157h1.820312zm0 0" fill="url(#e)"/><path d="m16.371094 19.273438h1.820312v.910156h-1.820312zm0 0" fill="url(#f)"/><path d="m4.546875 4.265625h12.734375c.503906 0 .910156.40625.910156.910156v13.1875c0 .503907-.40625.910157-.910156.910157h-12.734375c-.5 0-.910156-.40625-.910156-.910157v-13.1875c0-.503906.410156-.910156.910156-.910156zm0 0" fill="url(#g)"/><path d="m4.546875 4.328125c-.503906 0-.910156.40625-.910156.910156v.113281c0-.503906.40625-.910156.910156-.910156h12.734375c.503906 0 .910156.40625.910156.910156v-.113281c0-.503906-.40625-.910156-.910156-.910156zm0 0" fill="#fff" fill-opacity=".392157"/><path d="m4.546875 19.222656c-.503906 0-.910156-.40625-.910156-.910156v-.113281c0 .503906.40625.910156.910156.910156h12.734375c.503906 0 .910156-.40625.910156-.910156v.113281c0 .503906-.40625.910156-.910156.910156zm0 0" fill-opacity=".196078"/><path d="m105.808078-115.736752h296.335337c11.726153 0 21.179796 9.453643 21.179796 21.179796v306.879785c0 11.726153-9.453643 21.179796-21.179796 21.179796h-296.335337c-11.635253 0-21.179796-9.453643-21.179796-21.179796v-306.879785c0-11.726153 9.544543-21.179796 21.179796-21.179796zm0 0" fill="none" stroke="#212121" stroke-linecap="round" stroke-width="3" transform="matrix(.0429729 0 0 .0429729 0 9.239163)"/><path d="m126.987873-105.192304h253.975747c5.908526 0 10.635348 4.726821 10.635348 10.635348v296.335337c0 5.817627-4.726822 10.544448-10.635348 10.544448h-253.975747c-5.817626 0-10.544447-4.726821-10.544447-10.544448v-296.335337c0-5.908527 4.726821-10.635348 10.544447-10.635348zm0 0" fill="url(#h)" stroke="#212121" stroke-linecap="round" stroke-linejoin="round" stroke-width="3" transform="matrix(.0429729 0 0 .0429729 0 9.239163)"/><path d="m8.1875 1.992188c-.253906 0-.457031.203124-.457031.453124v.457032h-1.363281c-.253907 0-.453126.199218-.453126.453125v1.820312c0 .25.199219.453125.453126.453125h9.097656c.25 0 .453125-.203125.453125-.453125v-1.820312c0-.253907-.203125-.453125-.453125-.453125h-1.367188v-.457032c0-.25-.203125-.453124-.453125-.453124zm0 0" fill="url(#i)"/><path d="m5.914062 5.175781v.453125c0 .253906.199219.457032.453126.457032h9.097656c.25 0 .453125-.203126.453125-.457032v-.453125c0 .25-.203125.453125-.453125.453125h-9.097656c-.253907 0-.453126-.203125-.453126-.453125zm0 0" fill-opacity=".235294"/><path d="m8.1875 1.992188c-.253906 0-.457031.203124-.457031.453124v.171876c0-.253907.203125-.457032.457031-.457032h5.457031c.25 0 .453125.203125.453125.457032v-.171876c0-.25-.203125-.453124-.453125-.453124zm-1.820312.910156c-.253907 0-.453126.199218-.453126.453125v.171875c0-.253906.199219-.457032.453126-.457032h1.363281v-.167968zm7.730468 0v.167968h1.367188c.25 0 .453125.203126.453125.457032v-.171875c0-.253907-.203125-.453125-.453125-.453125zm0 0" fill="#fff" fill-opacity=".313726"/><path d="m720.103068 175.215918c-22.33144 0-40.196593 17.865153-40.196593 39.853033v40.196593h-119.902658c-22.33144 0-39.853032 17.521592-39.853032 39.853032v160.099251c0 21.98788 17.521592 39.853032 39.853032 39.853032h800.152694c21.98788 0 39.853032-17.865152 39.853032-39.853032v-160.099251c0-22.33144-17.865152-39.853032-39.853032-39.853032h-120.246219v-40.196593c0-21.98788-17.865152-39.853033-39.853032-39.853033zm0 0" fill="none" stroke="#212121" stroke-linecap="round" stroke-linejoin="round" stroke-width="11.338583" transform="scale(.0113699)"/><path d="m5.003906 17.910156v.226563c0 .25.203125.453125.453125.453125h10.914063c.253906 0 .457031-.203125.457031-.453125v-.226563c0 .25-.203125.453125-.457031.453125h-10.914063c-.25 0-.453125-.203125-.453125-.453125zm0 0" fill-opacity=".235294"/><g fill="#78909c"><path d="m8.640625 6.992188h6.824219c.25 0 .453125.207031.453125.457031s-.203125.453125-.453125.453125h-6.824219c-.25 0-.453125-.203125-.453125-.453125s.203125-.457031.453125-.457031zm0 0"/><path d="m8.640625 9.722656h6.824219c.25 0 .453125.203125.453125.453125 0 .253907-.203125.457031-.453125.457031h-6.824219c-.25 0-.453125-.203124-.453125-.457031 0-.25.203125-.453125.453125-.453125zm0 0"/><path d="m8.640625 12.453125h6.824219c.25 0 .453125.203125.453125.453125s-.203125.453125-.453125.453125h-6.824219c-.25 0-.453125-.203125-.453125-.453125s.203125-.453125.453125-.453125zm0 0"/><path d="m8.640625 15.179688h6.824219c.25 0 .453125.1875.453125.421874v.066407c0 .234375-.203125.421875-.453125.421875h-6.824219c-.25 0-.453125-.1875-.453125-.421875v-.066407c0-.234374.203125-.421874.453125-.421874zm0 0"/><path d="m6.820312 9.269531c-.503906 0-.90625.402344-.90625.90625 0 .503907.402344.910157.90625.910157.503907 0 .910157-.40625.910157-.910157 0-.503906-.40625-.90625-.910157-.90625zm0 .453125c.253907 0 .457032.203125.457032.453125 0 .253907-.203125.457031-.457032.457031-.25 0-.453124-.203124-.453124-.457031 0-.25.203124-.453125.453124-.453125zm0 0"/><path d="m6.820312 11.996094c-.503906 0-.90625.40625-.90625.910156s.402344.910156.90625.910156c.503907 0 .910157-.40625.910157-.910156s-.40625-.910156-.910157-.910156zm0 .457031c.253907 0 .457032.199219.457032.453125 0 .25-.203125.453125-.457032.453125-.25 0-.453124-.203125-.453124-.453125 0-.253906.203124-.453125.453124-.453125zm0 0"/><path d="m6.820312 14.726562c-.503906 0-.90625.40625-.90625.910157 0 .503906.402344.90625.90625.90625.503907 0 .910157-.402344.910157-.90625 0-.503907-.40625-.910157-.910157-.910157zm0 .453126c.253907 0 .457032.203124.457032.457031 0 .25-.203125.453125-.457032.453125-.25 0-.453124-.203125-.453124-.453125 0-.253907.203124-.457031.453124-.457031zm0 0"/><path d="m6.820312 6.539062c-.503906 0-.90625.40625-.90625.910157 0 .503906.402344.910156.90625.910156.503907 0 .910157-.40625.910157-.910156 0-.503907-.40625-.910157-.910157-.910157zm0 .453126c.253907 0 .457032.203124.457032.457031 0 .25-.203125.453125-.457032.453125-.25 0-.453124-.203125-.453124-.453125 0-.253907.203124-.457031.453124-.457031zm0 0"/></g><path d="m137.623221-57.560489 21.088895 21.179795 26.45202-31.724243" fill="none" stroke="#f44336" stroke-linecap="round" stroke-linejoin="round" stroke-width="12" transform="matrix(.0429729 0 0 .0429729 0 9.239163)"/><path d="m137.623221 5.978898 21.088895 21.179795 26.45202-31.815143" fill="none" stroke="#f44336" stroke-linecap="round" stroke-linejoin="round" stroke-width="12" transform="matrix(.0429729 0 0 .0429729 0 9.239163)"/></svg>

<?xml version="1.0" encoding="UTF-8"?>
<svg xmlns="http://www.w3.org/2000/svg" xmlns:xlink="http://www.w3.org/1999/xlink" width="22px" height="22px" viewBox="0 0 22 22" version="1.1">
<defs>
<linearGradient id="linear0" gradientUnits="userSpaceOnUse" x1="254" y1="233.5" x2="254" y2="254.666672" gradientTransform="matrix(0.0429729,0,0,0.0429729,-0.00000262285,9.239165)">
<stop offset="0" style="stop-color:rgb(0%,0%,0%);stop-opacity:0.27451;"/>
<stop offset="1" style="stop-color:rgb(0%,0%,0%);stop-opacity:0;"/>
</linearGradient>
<radialGradient id="radial0" gradientUnits="userSpaceOnUse" cx="450.908936" cy="189.579361" fx="450.908936" fy="189.579361" r="21.166656" gradientTransform="matrix(0.000000119742,-0.0537161,-0.0966889,-0.0000000698078,34.475434,43.721791)">
<stop offset="0" style="stop-color:rgb(0%,0%,0%);stop-opacity:0.313726;"/>
<stop offset="0.222222" style="stop-color:rgb(0%,0%,0%);stop-opacity:0.27451;"/>
<stop offset="1" style="stop-color:rgb(0%,0%,0%);stop-opacity:0;"/>
</radialGradient>
<radialGradient id="radial1" gradientUnits="userSpaceOnUse" cx="450.908936" cy="189.579361" fx="450.908936" fy="189.579361" r="21.166656" gradientTransform="matrix(-0.000000119742,0.0537161,0.0966889,0.0000000698078,-12.645221,-5.175143)">
<stop offset="0" style="stop-color:rgb(0%,0%,0%);stop-opacity:0.313726;"/>
<stop offset="0.222222" style="stop-color:rgb(0%,0%,0%);stop-opacity:0.27451;"/>
<stop offset="1" style="stop-color:rgb(0%,0%,0%);stop-opacity:0;"/>
</radialGradient>
<radialGradient id="radial2" gradientUnits="userSpaceOnUse" cx="450.908936" cy="189.579361" fx="450.908936" fy="189.579361" r="21.166656" gradientTransform="matrix(-0.000000119742,-0.0537161,0.0966889,-0.0000000698078,-12.645221,43.721791)">
<stop offset="0" style="stop-color:rgb(0%,0%,0%);stop-opacity:0.313726;"/>
<stop offset="0.222222" style="stop-color:rgb(0%,0%,0%);stop-opacity:0.27451;"/>
<stop offset="1" style="stop-color:rgb(0%,0%,0%);stop-opacity:0;"/>
</radialGradient>
<radialGradient id="radial3" gradientUnits="userSpaceOnUse" cx="450.908936" cy="189.579361" fx="450.908936" fy="189.579361" r="21.166656" gradientTransform="matrix(0.000000119742,0.0537161,-0.0966889,0.0000000698078,34.475433,-5.175142)">
<stop offset="0" style="stop-color:rgb(0%,0%,0%);stop-opacity:0.313726;"/>
<stop offset="0.222222" style="stop-color:rgb(0%,0%,0%);stop-opacity:0.27451;"/>
<stop offset="1" style="stop-color:rgb(0%,0%,0%);stop-opacity:0;"/>
</radialGradient>
<linearGradient id="linear1" gradientUnits="userSpaceOnUse" x1="323.513245" y1="-141.414581" x2="323.513245" y2="-25.791676" gradientTransform="matrix(0.0518029,0,0,0.149471,-4.024634,23.128427)">
<stop offset="0" style="stop-color:rgb(55.29412%,43.137255%,38.82353%);stop-opacity:1;"/>
<stop offset="1" style="stop-color:rgb(47.450981%,33.333334%,28.235295%);stop-opacity:1;"/>
</linearGradient>
<linearGradient id="linear2" gradientUnits="userSpaceOnUse" x1="254" y1="212.333328" x2="254" y2="-115.75" >
<stop offset="0" style="stop-color:rgb(87.843138%,87.843138%,87.843138%);stop-opacity:1;"/>
<stop offset="1" style="stop-color:rgb(93.333334%,93.333334%,93.333334%);stop-opacity:1;"/>
</linearGradient>
<linearGradient id="linear3" gradientUnits="userSpaceOnUse" x1="960" y1="1695.118164" x2="960" y2="175.118134" gradientTransform="matrix(0.0113699,0,0,0.0113699,0,0)">
<stop offset="0" style="stop-color:rgb(25.882354%,25.882354%,25.882354%);stop-opacity:1;"/>
<stop offset="1" style="stop-color:rgb(38.039216%,38.039216%,38.039216%);stop-opacity:1;"/>
</linearGradient>
</defs>
<g id="surface1">
<path style=" stroke:none;fill-rule:nonzero;fill:url(#linear0);" d="M 5.457031 19.273438 L 16.371094 19.273438 L 16.371094 20.183594 L 5.457031 20.183594 Z M 5.457031 19.273438 "/>
<path style=" stroke:none;fill-rule:nonzero;fill:url(#radial0);" d="M 16.371094 19.273438 L 18.191406 19.273438 L 18.191406 18.363281 L 16.371094 18.363281 Z M 16.371094 19.273438 "/>
<path style=" stroke:none;fill-rule:nonzero;fill:url(#radial1);" d="M 5.457031 19.273438 L 3.636719 19.273438 L 3.636719 20.183594 L 5.457031 20.183594 Z M 5.457031 19.273438 "/>
<path style=" stroke:none;fill-rule:nonzero;fill:url(#radial2);" d="M 5.457031 19.273438 L 3.636719 19.273438 L 3.636719 18.363281 L 5.457031 18.363281 Z M 5.457031 19.273438 "/>
<path style=" stroke:none;fill-rule:nonzero;fill:url(#radial3);" d="M 16.371094 19.273438 L 18.191406 19.273438 L 18.191406 20.183594 L 16.371094 20.183594 Z M 16.371094 19.273438 "/>
<path style=" stroke:none;fill-rule:nonzero;fill:url(#linear1);" d="M 4.546875 4.265625 L 17.28125 4.265625 C 17.785156 4.265625 18.191406 4.671875 18.191406 5.175781 L 18.191406 18.363281 C 18.191406 18.867188 17.785156 19.273438 17.28125 19.273438 L 4.546875 19.273438 C 4.046875 19.273438 3.636719 18.867188 3.636719 18.363281 L 3.636719 5.175781 C 3.636719 4.671875 4.046875 4.265625 4.546875 4.265625 Z M 4.546875 4.265625 "/>
<path style=" stroke:none;fill-rule:nonzero;fill:rgb(100%,100%,100%);fill-opacity:0.392157;" d="M 4.546875 4.328125 C 4.042969 4.328125 3.636719 4.734375 3.636719 5.238281 L 3.636719 5.351562 C 3.636719 4.847656 4.042969 4.441406 4.546875 4.441406 L 17.28125 4.441406 C 17.785156 4.441406 18.191406 4.847656 18.191406 5.351562 L 18.191406 5.238281 C 18.191406 4.734375 17.785156 4.328125 17.28125 4.328125 Z M 4.546875 4.328125 "/>
<path style=" stroke:none;fill-rule:nonzero;fill:rgb(0%,0%,0%);fill-opacity:0.196078;" d="M 4.546875 19.222656 C 4.042969 19.222656 3.636719 18.816406 3.636719 18.3125 L 3.636719 18.199219 C 3.636719 18.703125 4.042969 19.109375 4.546875 19.109375 L 17.28125 19.109375 C 17.785156 19.109375 18.191406 18.703125 18.191406 18.199219 L 18.191406 18.3125 C 18.191406 18.816406 17.785156 19.222656 17.28125 19.222656 Z M 4.546875 19.222656 "/>
<path style="fill:none;stroke-width:3;stroke-linecap:round;stroke-linejoin:miter;stroke:rgb(12.941177%,12.941177%,12.941177%);stroke-opacity:1;stroke-miterlimit:4;" d="M 105.808078 -115.736752 L 402.143415 -115.736752 C 413.869568 -115.736752 423.323211 -106.283109 423.323211 -94.556956 L 423.323211 212.322829 C 423.323211 224.048982 413.869568 233.502625 402.143415 233.502625 L 105.808078 233.502625 C 94.172825 233.502625 84.628282 224.048982 84.628282 212.322829 L 84.628282 -94.556956 C 84.628282 -106.283109 94.172825 -115.736752 105.808078 -115.736752 Z M 105.808078 -115.736752 " transform="matrix(0.0429729,0,0,0.0429729,0,9.239163)"/>
<path style="fill-rule:nonzero;fill:url(#linear2);stroke-width:3;stroke-linecap:round;stroke-linejoin:round;stroke:rgb(12.941177%,12.941177%,12.941177%);stroke-opacity:1;stroke-miterlimit:4;" d="M 126.987873 -105.192304 L 380.96362 -105.192304 C 386.872146 -105.192304 391.598968 -100.465483 391.598968 -94.556956 L 391.598968 201.778381 C 391.598968 207.596008 386.872146 212.322829 380.96362 212.322829 L 126.987873 212.322829 C 121.170247 212.322829 116.443426 207.596008 116.443426 201.778381 L 116.443426 -94.556956 C 116.443426 -100.465483 121.170247 -105.192304 126.987873 -105.192304 Z M 126.987873 -105.192304 " transform="matrix(0.0429729,0,0,0.0429729,0,9.239163)"/>
<path style=" stroke:none;fill-rule:nonzero;fill:url(#linear3);" d="M 8.1875 1.992188 C 7.933594 1.992188 7.730469 2.195312 7.730469 2.445312 L 7.730469 2.902344 L 6.367188 2.902344 C 6.113281 2.902344 5.914062 3.101562 5.914062 3.355469 L 5.914062 5.175781 C 5.914062 5.425781 6.113281 5.628906 6.367188 5.628906 L 15.464844 5.628906 C 15.714844 5.628906 15.917969 5.425781 15.917969 5.175781 L 15.917969 3.355469 C 15.917969 3.101562 15.714844 2.902344 15.464844 2.902344 L 14.097656 2.902344 L 14.097656 2.445312 C 14.097656 2.195312 13.894531 1.992188 13.644531 1.992188 Z M 8.1875 1.992188 "/>
<path style=" stroke:none;fill-rule:nonzero;fill:rgb(0%,0%,0%);fill-opacity:0.235294;" d="M 5.914062 5.175781 L 5.914062 5.628906 C 5.914062 5.882812 6.113281 6.085938 6.367188 6.085938 L 15.464844 6.085938 C 15.714844 6.085938 15.917969 5.882812 15.917969 5.628906 L 15.917969 5.175781 C 15.917969 5.425781 15.714844 5.628906 15.464844 5.628906 L 6.367188 5.628906 C 6.113281 5.628906 5.914062 5.425781 5.914062 5.175781 Z M 5.914062 5.175781 "/>
<path style=" stroke:none;fill-rule:nonzero;fill:rgb(100%,100%,100%);fill-opacity:0.313726;" d="M 8.1875 1.992188 C 7.933594 1.992188 7.730469 2.195312 7.730469 2.445312 L 7.730469 2.617188 C 7.730469 2.363281 7.933594 2.160156 8.1875 2.160156 L 13.644531 2.160156 C 13.894531 2.160156 14.097656 2.363281 14.097656 2.617188 L 14.097656 2.445312 C 14.097656 2.195312 13.894531 1.992188 13.644531 1.992188 Z M 6.367188 2.902344 C 6.113281 2.902344 5.914062 3.101562 5.914062 3.355469 L 5.914062 3.527344 C 5.914062 3.273438 6.113281 3.070312 6.367188 3.070312 L 7.730469 3.070312 L 7.730469 2.902344 Z M 14.097656 2.902344 L 14.097656 3.070312 L 15.464844 3.070312 C 15.714844 3.070312 15.917969 3.273438 15.917969 3.527344 L 15.917969 3.355469 C 15.917969 3.101562 15.714844 2.902344 15.464844 2.902344 Z M 14.097656 2.902344 "/>
<path style="fill:none;stroke-width:11.338583;stroke-linecap:round;stroke-linejoin:round;stroke:rgb(12.941177%,12.941177%,12.941177%);stroke-opacity:1;stroke-miterlimit:4;" d="M 720.103068 175.215918 C 697.771628 175.215918 679.906475 193.081071 679.906475 215.068951 L 679.906475 255.265544 L 560.003817 255.265544 C 537.672377 255.265544 520.150785 272.787136 520.150785 295.118576 L 520.150785 455.217827 C 520.150785 477.205707 537.672377 495.070859 560.003817 495.070859 L 1360.156511 495.070859 C 1382.144391 495.070859 1400.009543 477.205707 1400.009543 455.217827 L 1400.009543 295.118576 C 1400.009543 272.787136 1382.144391 255.265544 1360.156511 255.265544 L 1239.910292 255.265544 L 1239.910292 215.068951 C 1239.910292 193.081071 1222.04514 175.215918 1200.05726 175.215918 Z M 720.103068 175.215918 " transform="matrix(0.0113699,0,0,0.0113699,0,0)"/>
<path style=" stroke:none;fill-rule:nonzero;fill:rgb(0%,0%,0%);fill-opacity:0.235294;" d="M 5.003906 17.910156 L 5.003906 18.136719 C 5.003906 18.386719 5.207031 18.589844 5.457031 18.589844 L 16.371094 18.589844 C 16.625 18.589844 16.828125 18.386719 16.828125 18.136719 L 16.828125 17.910156 C 16.828125 18.160156 16.625 18.363281 16.371094 18.363281 L 5.457031 18.363281 C 5.207031 18.363281 5.003906 18.160156 5.003906 17.910156 Z M 5.003906 17.910156 "/>
<path style=" stroke:none;fill-rule:nonzero;fill:rgb(47.058824%,56.470591%,61.176473%);fill-opacity:1;" d="M 8.640625 6.992188 L 15.464844 6.992188 C 15.714844 6.992188 15.917969 7.199219 15.917969 7.449219 C 15.917969 7.699219 15.714844 7.902344 15.464844 7.902344 L 8.640625 7.902344 C 8.390625 7.902344 8.1875 7.699219 8.1875 7.449219 C 8.1875 7.199219 8.390625 6.992188 8.640625 6.992188 Z M 8.640625 6.992188 "/>
<path style=" stroke:none;fill-rule:nonzero;fill:rgb(47.058824%,56.470591%,61.176473%);fill-opacity:1;" d="M 8.640625 9.722656 L 15.464844 9.722656 C 15.714844 9.722656 15.917969 9.925781 15.917969 10.175781 C 15.917969 10.429688 15.714844 10.632812 15.464844 10.632812 L 8.640625 10.632812 C 8.390625 10.632812 8.1875 10.429688 8.1875 10.175781 C 8.1875 9.925781 8.390625 9.722656 8.640625 9.722656 Z M 8.640625 9.722656 "/>
<path style=" stroke:none;fill-rule:nonzero;fill:rgb(47.058824%,56.470591%,61.176473%);fill-opacity:1;" d="M 8.640625 12.453125 L 15.464844 12.453125 C 15.714844 12.453125 15.917969 12.65625 15.917969 12.90625 C 15.917969 13.15625 15.714844 13.359375 15.464844 13.359375 L 8.640625 13.359375 C 8.390625 13.359375 8.1875 13.15625 8.1875 12.90625 C 8.1875 12.65625 8.390625 12.453125 8.640625 12.453125 Z M 8.640625 12.453125 "/>
<path style=" stroke:none;fill-rule:nonzero;fill:rgb(47.058824%,56.470591%,61.176473%);fill-opacity:1;" d="M 8.640625 15.179688 L 15.464844 15.179688 C 15.714844 15.179688 15.917969 15.367188 15.917969 15.601562 L 15.917969 15.667969 C 15.917969 15.902344 15.714844 16.089844 15.464844 16.089844 L 8.640625 16.089844 C 8.390625 16.089844 8.1875 15.902344 8.1875 15.667969 L 8.1875 15.601562 C 8.1875 15.367188 8.390625 15.179688 8.640625 15.179688 Z M 8.640625 15.179688 "/>
<path style=" stroke:none;fill-rule:nonzero;fill:rgb(47.058824%,56.470591%,61.176473%);fill-opacity:1;" d="M 6.820312 9.269531 C 6.316406 9.269531 5.914062 9.671875 5.914062 10.175781 C 5.914062 10.679688 6.316406 11.085938 6.820312 11.085938 C 7.324219 11.085938 7.730469 10.679688 7.730469 10.175781 C 7.730469 9.671875 7.324219 9.269531 6.820312 9.269531 Z M 6.820312 9.722656 C 7.074219 9.722656 7.277344 9.925781 7.277344 10.175781 C 7.277344 10.429688 7.074219 10.632812 6.820312 10.632812 C 6.570312 10.632812 6.367188 10.429688 6.367188 10.175781 C 6.367188 9.925781 6.570312 9.722656 6.820312 9.722656 Z M 6.820312 9.722656 "/>
<path style=" stroke:none;fill-rule:nonzero;fill:rgb(47.058824%,56.470591%,61.176473%);fill-opacity:1;" d="M 6.820312 11.996094 C 6.316406 11.996094 5.914062 12.402344 5.914062 12.90625 C 5.914062 13.410156 6.316406 13.816406 6.820312 13.816406 C 7.324219 13.816406 7.730469 13.410156 7.730469 12.90625 C 7.730469 12.402344 7.324219 11.996094 6.820312 11.996094 Z M 6.820312 12.453125 C 7.074219 12.453125 7.277344 12.652344 7.277344 12.90625 C 7.277344 13.15625 7.074219 13.359375 6.820312 13.359375 C 6.570312 13.359375 6.367188 13.15625 6.367188 12.90625 C 6.367188 12.652344 6.570312 12.453125 6.820312 12.453125 Z M 6.820312 12.453125 "/>
<path style=" stroke:none;fill-rule:nonzero;fill:rgb(47.058824%,56.470591%,61.176473%);fill-opacity:1;" d="M 6.820312 14.726562 C 6.316406 14.726562 5.914062 15.132812 5.914062 15.636719 C 5.914062 16.140625 6.316406 16.542969 6.820312 16.542969 C 7.324219 16.542969 7.730469 16.140625 7.730469 15.636719 C 7.730469 15.132812 7.324219 14.726562 6.820312 14.726562 Z M 6.820312 15.179688 C 7.074219 15.179688 7.277344 15.382812 7.277344 15.636719 C 7.277344 15.886719 7.074219 16.089844 6.820312 16.089844 C 6.570312 16.089844 6.367188 15.886719 6.367188 15.636719 C 6.367188 15.382812 6.570312 15.179688 6.820312 15.179688 Z M 6.820312 15.179688 "/>
<path style=" stroke:none;fill-rule:nonzero;fill:rgb(47.058824%,56.470591%,61.176473%);fill-opacity:1;" d="M 6.820312 6.539062 C 6.316406 6.539062 5.914062 6.945312 5.914062 7.449219 C 5.914062 7.953125 6.316406 8.359375 6.820312 8.359375 C 7.324219 8.359375 7.730469 7.953125 7.730469 7.449219 C 7.730469 6.945312 7.324219 6.539062 6.820312 6.539062 Z M 6.820312 6.992188 C 7.074219 6.992188 7.277344 7.195312 7.277344 7.449219 C 7.277344 7.699219 7.074219 7.902344 6.820312 7.902344 C 6.570312 7.902344 6.367188 7.699219 6.367188 7.449219 C 6.367188 7.195312 6.570312 6.992188 6.820312 6.992188 Z M 6.820312 6.992188 "/>
<path style="fill:none;stroke-width:12;stroke-linecap:round;stroke-linejoin:round;stroke:rgb(95.686275%,26.274511%,21.176471%);stroke-opacity:1;stroke-miterlimit:4;" d="M 137.623221 -57.560489 L 158.712116 -36.380694 L 185.164136 -68.104937 " transform="matrix(0.0429729,0,0,0.0429729,0,9.239163)"/>
<path style="fill:none;stroke-width:12;stroke-linecap:round;stroke-linejoin:round;stroke:rgb(95.686275%,26.274511%,21.176471%);stroke-opacity:1;stroke-miterlimit:4;" d="M 137.623221 5.978898 L 158.712116 27.158693 L 185.164136 -4.65645 " transform="matrix(0.0429729,0,0,0.0429729,0,9.239163)"/>
</g>
</svg>
